X:1
T:Jingle Bells
T:James Pierpont arr Bridget and Lucy
%%score 1 2 3 4
L:1/8
M:4/4
K:C
V:1 bass nm="Trombone" snm="Tbn."
V:2 bass nm="Trombone" snm="Tbn."
V:3 bass nm="Trombone" snm="Tbn."
V:4 bass nm="Trombone" snm="Tbn."
V:1
!mf! G,EDC G,2 z G, | G,EDC A,2 z A, | A,FED B,2 z B, | GGFD E2 z G, | G,EDC G,2 z G, | %5
 G,EDC A,2 z A, | A,FED GGGG | AGFD C3 z |!mf! C8 | C8 | F4 E4 | A,6 G z | C8 | C8 | F,8 | %15
!f! C2 C2 C2 B,2 | G8 |] %17
V:2
!mp! E,8 | E,4 F,4 | F,4 G,4 | B,4 C4 | E,8 | E,2 G,4 F,2 | F,2 C2 DE C2 | C3 B, C2 z2 |!mf! G8 | %9
 E8 | D4 C4 | A,6 G z | G8 | E8 | A,8 |!f! G2 D2 G2 F2 | E8 |] %17
V:3
!mp! C,8 | C,8 | C,4 D,4 | F,4 G,4 | z8 | z8 | z8 | z8 |!f! EE E2 EE E2 | EG C>D E3 z | %10
 FF F>F FE EE/E/ | EDDE D2 G z |!mf! CC C2 CC C2 | E8 | F,8 |!f! G,2 A,2 F,2 G,2 | C8 |] %17
V:4
 z8 | z8 | z8 | z8 |!p! C4 B,4 | _B,4 A,4 | _A,4 G,4 | F,2 G,2 C,2 z2 |!mf! CC C2 CC C2 | E8 | z8 | %11
 z8 |!f! EE E2 EE E2 | EG C>D E3 z | FF F>F FE EE/E/ |!f! G2 G2 F2 D2 | C8 |] %17

